data/icons/hicolor/symbolic/apps/io.github.sepehr_rs.Sudoku-symbolic.svg

<?xml version="1.0" encoding="UTF-8"?>
<svg height="16px" viewBox="0 0 16 16" width="16px" xmlns="http://www.w3.org/2000/svg">
    <path d="m 1.101562 2.800781 h 13.796876 c 0.332031 0 0.601562 0.269531 0.601562 0.597657 c 0 0.332031 -0.269531 0.601562 -0.601562 0.601562 h -13.796876 c -0.332031 0 -0.601562 -0.269531 -0.601562 -0.601562 c 0 -0.328126 0.269531 -0.597657 0.601562 -0.597657 z m 0 0"/>
    <path d="m 1.101562 12 h 13.796876 c 0.332031 0 0.601562 0.269531 0.601562 0.601562 c 0 0.328126 -0.269531 0.597657 -0.601562 0.597657 h -13.796876 c -0.332031 0 -0.601562 -0.269531 -0.601562 -0.597657 c 0 -0.332031 0.269531 -0.601562 0.601562 -0.601562 z m 0 0"/>
    <path d="m 13.199219 1.101562 v 13.796876 c 0 0.332031 -0.269531 0.601562 -0.597657 0.601562 c -0.332031 0 -0.601562 -0.269531 -0.601562 -0.601562 v -13.796876 c 0 -0.332031 0.269531 -0.601562 0.601562 -0.601562 c 0.328126 0 0.597657 0.269531 0.597657 0.601562 z m 0 0"/>
    <path d="m 4.199219 1.101562 v 13.796876 c 0 0.332031 -0.269531 0.601562 -0.597657 0.601562 c -0.332031 0 -0.601562 -0.269531 -0.601562 -0.601562 v -13.796876 c 0 -0.332031 0.269531 -0.601562 0.601562 -0.601562 c 0.328126 0 0.597657 0.269531 0.597657 0.601562 z m 0 0"/>
    <path d="m 5.410156 11 l 2.351563 -3.992188 v -0.007812 h -2.761719 v -2 h 6 v 1.304688 l -2.523438 4.695312 z m 0 0"/>
</svg>

<?xml version="1.0" encoding="UTF-8"?>
<svg
    xmlns="http://www.w3.org/2000/svg"
    width="16"
    height="16"
    viewBox="0 0 16 16"
    shape-rendering="crispEdges">

    <path d="M1.1 2.8h13.8c0.33 0 0.6 0.27 0.6 0.6s-0.27 0.6-0.6 0.6H1.1c-0.33 0-0.6-0.27-0.6-0.6s0.27-0.6 0.6-0.6z"/>
    <path d="M1.1 12h13.8c0.33 0 0.6 0.27 0.6 0.6s-0.27 0.6-0.6 0.6H1.1c-0.33 0-0.6-0.27-0.6-0.6s0.27-0.6 0.6-0.6z"/>
    <path d="M13.2 1.1v13.8c0 0.33-0.27 0.6-0.6 0.6s-0.6-0.27-0.6-0.6V1.1c0-0.33 0.27-0.6 0.6-0.6s0.6 0.27 0.6 0.6z"/>
    <path d="M4.2 1.1v13.8c0 0.33-0.27 0.6-0.6 0.6s-0.6-0.27-0.6-0.6V1.1c0-0.33 0.27-0.6 0.6-0.6s0.6 0.27 0.6 0.6z"/>
    <path d="M5.41 11L7.76 7H5V5h6v1.3L8.48 11z"/>
</svg>
